assets/Person getting haircut/Light/Flat/person_getting_haircut_flat_light.svg

<svg width="32" height="32" viewBox="0 0 32 32" fill="none" xmlns="http://www.w3.org/2000/svg">
<path d="M24.93 3L23.5292 7.84087L23.6837 8.89844L23.922 9.01172L24.7081 8.17998L25.84 4.25C25.99 3.75 25.7 3.22 25.19 3.08L24.93 3Z" fill="#D3D3D3"/>
<path d="M23.65 5.21001C23.8699 4.92001 24.32 5.08001 24.32 5.44001C24.32 6.88001 22.12 8.48001 21.16 8.94001C21.19 9.48001 21.12 10.5 20.81 10.95C20.62 11.22 20.52 11.54 20.52 11.87V12.42C20.4303 12.3539 18.5 13.8391 18.5 13.8391C18.5 13.8391 19.3215 16.1031 20.5299 15.22V16.2C20.5299 17.1 19.9899 17.91 19.1799 18.27C19.526 17.5167 12.81 16.6949 9.74007 18.3C8.89007 17.96 8.32007 17.13 8.32007 16.2V15.23C8.92217 15.6537 9.74007 13.8391 9.74007 13.8391C9.74007 13.8391 9 12.5 8.31995 12.4V11.87C8.31995 11.54 8.21995 11.22 8.02995 10.95C7.51995 10.21 7.42995 9.22002 7.87995 8.38001C8.18995 7.80001 8.68995 7.40001 9.25995 7.20001C9.86995 6.99001 10.38 6.58001 10.72 6.04001C11.15 5.35001 11.93 4.89001 12.81 4.89001C13.15 4.89001 13.48 4.96001 13.78 5.09001C14.19 5.26001 14.65 5.26001 15.05 5.09001C15.35 4.96001 15.68 4.89001 16.02 4.89001C16.92 4.89001 17.71 5.37001 18.14 6.08001C18.36 6.43001 18.65 6.72001 19 6.93001C20.79 7.56001 23.1299 5.88001 23.65 5.21001Z" fill="#212121"/>
<path d="M3 30C3 24.201 7.70101 19.5 13.5 19.5H15.5C21.299 19.5 26 24.201 26 30H3Z" fill="#FF6723"/>
<path d="M14.4199 22.5C13.1899 22.5 12.1899 21.5 12.1899 20.27V18.8H16.6599V20.27C16.6499 21.5 15.6499 22.5 14.4199 22.5Z" fill="#F4C6AD"/>
<path d="M11.0698 13.82C11.0698 14.7809 10.2908 15.56 9.32984 15.56C8.36887 15.56 7.58984 14.7809 7.58984 13.82C7.58984 12.859 8.36887 12.08 9.32984 12.08C10.2908 12.08 11.0698 12.859 11.0698 13.82Z" fill="#F4C6AD"/>
<path d="M21.25 13.82C21.25 14.7809 20.471 15.56 19.51 15.56C18.549 15.56 17.77 14.7809 17.77 13.82C17.77 12.859 18.549 12.08 19.51 12.08C20.471 12.08 21.25 12.859 21.25 13.82Z" fill="#F4C6AD"/>
<path d="M9.04749 12.1004L9.04995 12.1001V11.2401C9.04995 9.28007 10.6399 7.70007 12.5899 7.70007H13.9399C14.2299 7.70007 14.4899 7.88007 14.5899 8.14007C15.0099 9.06007 15.9299 9.65007 16.9399 9.65007H18.4199C19.2299 9.69007 19.8699 10.3501 19.8899 11.1601L19.8299 12.1201C19.8336 12.1201 19.8372 12.1214 19.8408 12.123L19.5274 17.0801C19.2569 19.1201 17.504 20.6501 15.4406 20.6501H13.4574C11.394 20.6501 9.64107 19.1301 9.37062 17.0801L9.04749 12.1004Z" fill="#FFD7C2"/>
<path d="M14.0298 13.52L13.4798 15.3C13.3698 15.66 13.6398 16.03 14.0198 16.03H14.8298C15.2098 16.03 15.4798 15.66 15.3698 15.3L14.8198 13.52C14.7098 13.13 14.1498 13.13 14.0298 13.52Z" fill="#E5AF93"/>
<path d="M14.4299 17.04C13.8699 17.04 13.3399 16.9 12.8899 16.67C12.7399 16.59 12.5799 16.76 12.6699 16.91C13.0399 17.49 13.6899 17.87 14.4299 17.87C15.1699 17.87 15.8199 17.49 16.1899 16.91C16.2799 16.77 16.1199 16.59 15.9699 16.67C15.5199 16.9 14.9999 17.04 14.4299 17.04Z" fill="#990838"/>
<path d="M17.9007 11.6035C17.9493 11.6404 18.0087 11.6604 18.0697 11.6605C18.1281 11.6609 18.1851 11.6429 18.2328 11.6091C18.2804 11.5754 18.3163 11.5275 18.3353 11.4723C18.3542 11.4171 18.3554 11.3573 18.3387 11.3013C18.3219 11.2454 18.288 11.1962 18.2417 11.1605C17.665 10.7621 16.9606 10.5924 16.2657 10.6845C16.2293 10.6888 16.1941 10.7003 16.1621 10.7183C16.1301 10.7363 16.102 10.7605 16.0794 10.7894C16.0569 10.8183 16.0402 10.8514 16.0305 10.8868C16.0207 10.9222 16.0181 10.9591 16.0227 10.9955C16.0265 11.0322 16.0377 11.0677 16.0555 11.1C16.0733 11.1323 16.0975 11.1607 16.1265 11.1834C16.1555 11.2062 16.1888 11.2229 16.2244 11.2325C16.26 11.2422 16.2972 11.2445 16.3337 11.2395C16.8827 11.1704 17.4384 11.2995 17.9007 11.6035Z" fill="#212121"/>
<path d="M10.6277 11.6091C10.6753 11.6429 10.7323 11.6609 10.7907 11.6605C10.8518 11.6604 10.9111 11.6404 10.9597 11.6035C11.4205 11.2968 11.9769 11.1675 12.5257 11.2395C12.5973 11.2447 12.6682 11.2222 12.7237 11.1767C12.7792 11.1312 12.8151 11.066 12.8239 10.9948C12.8328 10.9236 12.8139 10.8516 12.7713 10.7939C12.7286 10.7361 12.6654 10.697 12.5947 10.6845C11.9 10.5958 11.1969 10.7652 10.6187 11.1605C10.5725 11.1961 10.5386 11.2454 10.5218 11.3013C10.505 11.3573 10.5062 11.4171 10.5252 11.4723C10.5442 11.5275 10.58 11.5754 10.6277 11.6091Z" fill="#212121"/>
<path d="M10.4499 13.49C10.6099 12.85 11.1899 12.37 11.8899 12.37C12.6099 12.37 13.2099 12.89 13.3499 13.56C13.3799 13.71 13.2599 13.85 13.1099 13.85H10.7399C10.5499 13.85 10.3999 13.67 10.4499 13.49Z" fill="white"/>
<path d="M18.41 13.49C18.25 12.85 17.67 12.37 16.97 12.37C16.25 12.37 15.65 12.89 15.51 13.56C15.48 13.71 15.6 13.85 15.75 13.85H18.12C18.31 13.85 18.46 13.67 18.41 13.49Z" fill="white"/>
<path d="M11.1599 13.6C11.1599 13.08 11.5899 12.65 12.1099 12.65C12.6299 12.65 13.0599 13.08 13.0499 13.6C13.0499 13.69 13.0399 13.77 13.0199 13.85H11.1899C11.1699 13.77 11.1599 13.69 11.1599 13.6Z" fill="#7D4533"/>
<path d="M17.7 13.6C17.7 13.08 17.27 12.65 16.75 12.65C16.23 12.65 15.8 13.08 15.81 13.6C15.81 13.69 15.82 13.77 15.84 13.85H17.67C17.69 13.77 17.7 13.69 17.7 13.6Z" fill="#7D4533"/>
<path d="M12.1101 13.0601C12.4101 13.0601 12.6501 13.3001 12.6501 13.6001C12.6501 13.6901 12.6301 13.7801 12.5901 13.8501H11.6301C11.5901 13.7801 11.5701 13.6901 11.5701 13.6001C11.5701 13.3001 11.8101 13.0601 12.1101 13.0601Z" fill="black"/>
<path d="M16.75 13.0601C16.45 13.0601 16.21 13.3001 16.21 13.6001C16.21 13.6901 16.23 13.7801 16.27 13.8501H17.23C17.27 13.7801 17.29 13.6901 17.29 13.6001C17.29 13.3001 17.05 13.0601 16.75 13.0601Z" fill="black"/>
<path d="M11.9499 13.2301C11.9499 13.3239 11.8738 13.4001 11.7799 13.4001C11.686 13.4001 11.6099 13.3239 11.6099 13.2301C11.6099 13.1362 11.686 13.0601 11.7799 13.0601C11.8738 13.0601 11.9499 13.1362 11.9499 13.2301Z" fill="white"/>
<path d="M16.63 13.2301C16.63 13.3239 16.5539 13.4001 16.46 13.4001C16.3662 13.4001 16.29 13.3239 16.29 13.2301C16.29 13.1362 16.3662 13.0601 16.46 13.0601C16.5539 13.0601 16.63 13.1362 16.63 13.2301Z" fill="white"/>
<path d="M20.2 5.60999L25.0399 7.01059L25.8789 7.69922L25.793 8.15234L24.705 8.18478L20.8 7.05999C20.3 6.90999 19.98 6.35999 20.13 5.85999L20.2 5.60999Z" fill="#D3D3D3"/>
<path d="M24.29 7.72C24.4557 7.72 24.59 7.58568 24.59 7.42C24.59 7.25431 24.4557 7.12 24.29 7.12C24.1243 7.12 23.99 7.25431 23.99 7.42C23.99 7.58568 24.1243 7.72 24.29 7.72Z" fill="#9B9B9B"/>
<path d="M25.0465 7.0046L24.7073 8.18217L25.3298 8.36993C25.3398 8.62993 25.4098 8.89993 25.5498 9.14993C26.0398 10.0399 27.1598 10.3599 28.0498 9.86993C28.9398 9.37993 29.2598 8.25993 28.7698 7.36993C28.2798 6.47993 27.1598 6.14993 26.2698 6.63993C26.0198 6.77993 25.8198 6.95993 25.6698 7.17993L25.0465 7.0046ZM26.7498 7.50993C27.1598 7.27993 27.6798 7.42993 27.9098 7.84993C28.1398 8.25993 27.9898 8.77993 27.5698 9.00993C27.1598 9.23993 26.6398 9.08993 26.4098 8.66993C26.1798 8.25993 26.3398 7.73993 26.7498 7.50993Z" fill="#F8312F"/>
<path d="M23.34 8.47992L23.5249 7.84482L24.7033 8.18422L24.52 8.82992C24.74 8.97992 24.92 9.17992 25.06 9.42992C25.55 10.3199 25.23 11.4399 24.34 11.9299C23.45 12.4199 22.33 12.0899 21.84 11.1999C21.35 10.3099 21.67 9.18992 22.56 8.69992C22.81 8.55992 23.08 8.48992 23.34 8.47992ZM24.21 9.88992C23.98 9.46992 23.46 9.31992 23.05 9.54992C22.63 9.77992 22.48 10.2999 22.71 10.7099C22.94 11.1299 23.46 11.2799 23.87 11.0499C24.29 10.8199 24.44 10.2999 24.21 9.88992Z" fill="#F8312F"/>
</svg>

<svg xmlns="http://www.w3.org/2000/svg" width="32" height="32" fill="none"><path fill="#D3D3D3" d="m24.93 3-1.4 4.84.154 1.058.238.114.786-.832 1.132-3.93a.935.935 0 0 0-.65-1.17L24.93 3Z"/><path fill="#212121" d="M23.65 5.21c.22-.29.67-.13.67.23 0 1.44-2.2 3.04-3.16 3.5.03.54-.04 1.56-.35 2.01-.19.27-.29.59-.29.92v.55c-.09-.066-2.02 1.42-2.02 1.42s.822 2.263 2.03 1.38v.98c0 .9-.54 1.71-1.35 2.07.346-.753-6.37-1.575-9.44.03a2.264 2.264 0 0 1-1.42-2.1v-.97c.602.424 1.42-1.39 1.42-1.39S9 12.5 8.32 12.4v-.53c0-.33-.1-.65-.29-.92-.51-.74-.6-1.73-.15-2.57.31-.58.81-.98 1.38-1.18.61-.21 1.12-.62 1.46-1.16a2.462 2.462 0 0 1 3.06-.95c.41.17.87.17 1.27 0a2.479 2.479 0 0 1 3.09.99c.22.35.51.64.86.85 1.79.63 4.13-1.05 4.65-1.72Z"/><path fill="#FF6723" d="M3 30c0-5.799 4.701-10.5 10.5-10.5h2C21.299 19.5 26 24.201 26 30H3Z"/><path fill="#F4C6AD" d="M14.42 22.5c-1.23 0-2.23-1-2.23-2.23V18.8h4.47v1.47a2.247 2.247 0 0 1-2.24 2.23ZM11.07 13.82a1.74 1.74 0 1 1-3.48 0 1.74 1.74 0 0 1 3.48 0ZM21.25 13.82a1.74 1.74 0 1 1-3.48 0 1.74 1.74 0 0 1 3.48 0Z"/><path fill="#FFD7C2" d="M9.047 12.1h.003v-.86a3.54 3.54 0 0 1 3.54-3.54h1.35c.29 0 .55.18.65.44.42.92 1.34 1.51 2.35 1.51h1.48c.81.04 1.45.7 1.47 1.51l-.06.96c.004 0 .007.001.01.003l-.313 4.957a4.123 4.123 0 0 1-4.086 3.57h-1.984a4.115 4.115 0 0 1-4.086-3.57l-.324-4.98Z"/><path fill="#E5AF93" d="m14.03 13.52-.55 1.78c-.11.36.16.73.54.73h.81c.38 0 .65-.37.54-.73l-.55-1.78c-.11-.39-.67-.39-.79 0Z"/><path fill="#990838" d="M14.43 17.04c-.56 0-1.09-.14-1.54-.37-.15-.08-.31.09-.22.24.37.58 1.02.96 1.76.96s1.39-.38 1.76-.96c.09-.14-.07-.32-.22-.24-.45.23-.97.37-1.54.37Z"/><path fill="#212121" d="M17.9 11.604a.28.28 0 0 0 .439-.303.28.28 0 0 0-.097-.14 2.824 2.824 0 0 0-1.976-.476.278.278 0 0 0-.243.31.275.275 0 0 0 .31.245c.55-.07 1.105.06 1.568.364ZM10.628 11.61a.278.278 0 0 0 .332-.006 2.289 2.289 0 0 1 1.566-.364.28.28 0 0 0 .069-.556 2.86 2.86 0 0 0-1.976.477.28.28 0 0 0 .009.448Z"/><path fill="#fff" d="M10.45 13.49c.16-.64.74-1.12 1.44-1.12.72 0 1.32.52 1.46 1.19.03.15-.09.29-.24.29h-2.37c-.19 0-.34-.18-.29-.36ZM18.41 13.49c-.16-.64-.74-1.12-1.44-1.12-.72 0-1.32.52-1.46 1.19-.03.15.09.29.24.29h2.37c.19 0 .34-.18.29-.36Z"/><path fill="#7D4533" d="M11.16 13.6c0-.52.43-.95.95-.95s.95.43.94.95c0 .09-.01.17-.03.25h-1.83c-.02-.08-.03-.16-.03-.25ZM17.7 13.6c0-.52-.43-.95-.95-.95s-.95.43-.94.95c0 .09.01.17.03.25h1.83c.02-.08.03-.16.03-.25Z"/><path fill="#000" d="M12.11 13.06c.3 0 .54.24.54.54 0 .09-.02.18-.06.25h-.96a.514.514 0 0 1-.06-.25c0-.3.24-.54.54-.54ZM16.75 13.06c-.3 0-.54.24-.54.54 0 .09.02.18.06.25h.96c.04-.07.06-.16.06-.25 0-.3-.24-.54-.54-.54Z"/><path fill="#fff" d="M11.95 13.23a.17.17 0 1 1-.34 0 .17.17 0 0 1 .34 0ZM16.63 13.23a.17.17 0 1 1-.34 0 .17.17 0 0 1 .34 0Z"/><path fill="#D3D3D3" d="m20.2 5.61 4.84 1.4.839.69-.086.452-1.088.033L20.8 7.06c-.5-.15-.82-.7-.67-1.2l.07-.25Z"/><path fill="#9B9B9B" d="M24.29 7.72a.3.3 0 1 0 0-.6.3.3 0 0 0 0 .6Z"/><path fill="#F8312F" d="m25.047 7.005-.34 1.177.623.188c.01.26.08.53.22.78a1.84 1.84 0 0 0 3.22-1.78 1.843 1.843 0 0 0-2.5-.73c-.25.14-.45.32-.6.54l-.623-.175Zm1.703.505c.41-.23.93-.08 1.16.34.23.41.08.93-.34 1.16-.41.23-.93.08-1.16-.34a.857.857 0 0 1 .34-1.16ZM23.34 8.48l.185-.635 1.178.34-.183.645c.22.15.4.35.54.6.49.89.17 2.01-.72 2.5-.89.49-2.01.16-2.5-.73a1.84 1.84 0 0 1 .72-2.5c.25-.14.52-.21.78-.22Zm.87 1.41a.849.849 0 0 0-1.16-.34c-.42.23-.57.75-.34 1.16.23.42.75.57 1.16.34.42-.23.57-.75.34-1.16Z"/></svg>
